X:1
T:Title
%%score ( 1 2 ) { 3 | 4 }
L:1/8
Q:1/4=103
M:4/4
K:F
V:1 treble nm="Grand Piano, Soprano"
V:2 treble 
V:3 bass nm="Choir Pad, I Am His Evermore"
V:4 bass 
V:1
 [CF][CA] [Fc]2 [Fc]2 [F=B]2 | [Fc]2 [Fd]2 [Fc]2 A2 | [CF][CF] [CF]2 [FA]2 [FA]2 | F2 [EG]6 | %4
w: By~Eula~Eastep * * * *||||
 [CF][CG] [FA]2 [FA]2 [Fc]2 | [Fc]2 [FA]2 [Fc]2 [Fd]2 | [Fd][Fd] [Fc]2 [FA]2 [FA]2 | [EG]2 [CF]6 | %8
w: ||||
 z2 c6 | z2 A6 | z2 c6 | z2 G6 | z2 A6 | z2 c6 | z2 A6 | [EG][EG] F2 DD C2- | C6 z2 |] %17
w: |||||||||
V:2
 x8 | x8 | x8 | x8 | x8 | x8 | x8 | x8 | FA F2 E2 F2 | FG F2 F2 F2 | [Fd][Fd] F2 E2 F2 | %11
 FF E2 E2 E2 | FG F2 F2 F2 | dd F2 E2 F2 | [CF][EG] F2 F2 F2 | x8 | x8 |] %17
V:3
 A,F, A,2 A,2 _A,2 | A,2 B,2 A,2 C2 | A,A, A,2[K:treble] C2 C2 | C2 C6 | A,B, C2 C2[K:bass] A,2 | %5
 A,2 C2 A,2 B,2 | B,B, A,2 C2 C2 | B,2 A,6 | z2 A,2 G,2 A,2 | z2[K:treble] C2 D2 C2 | %10
 B,B, C2[K:bass] B,2 A,2 | =B,B, C2[K:treble] C2 C2 | z2 C2 D2 C2 | z2[K:bass] A,2 G,2 A,2 | %14
 A,B,[K:treble] C2 D2 C2 | B,B,[K:bass] A,2 _A,A, =A,2- | A,6 z2 |] %17
V:4
 .F,2 F,2 F,2 F,2 | F,2 F,2 F,2 F,2 | F,F, F,2 F,2 F,2 | A,,2 C,6 | F,F, F,2 F,2 F,2 | %5
 F,2 F,2 F,2 B,,2 | B,,B,, C,2 C,2 C,2 | C,2 F,6 | z2 F,2 C,2 F,2 | z2 F,2 D,2 F,2 | %10
 z2 A,2 G,2 F,2 | D,D, C,2 C,2 C,2 | z2 F,2 D,2 F,2 | z2 F,2 C,2 F,2 | z G, F,2 D,2 A,,2 | %15
 C,C, F,6 | z8 |] %17

